packages/foundations/assets/icons/functional/images/business & payment/shopping_basket_disabled_16_filled.svg

<svg width="16" height="16" viewBox="0 0 16 16" fill="none" xmlns="http://www.w3.org/2000/svg">
<g clip-path="url(#clip0_2202_1485)">
<path fill-rule="evenodd" clip-rule="evenodd" d="M7.97537 1.99969C9.27737 1.99969 10.3084 2.64969 10.8274 3.64169L11.8344 2.63369C11.9845 2.48358 12.1881 2.39925 12.4004 2.39925C12.6127 2.39925 12.8163 2.48358 12.9664 2.63369C13.1165 2.78381 13.2008 2.9874 13.2008 3.19969C13.2008 3.41199 13.1165 3.61558 12.9664 3.76569C9.63437 7.09969 6.30037 10.4337 2.96637 13.7657C2.89207 13.8401 2.80384 13.8991 2.70672 13.9393C2.6096 13.9796 2.5055 14.0003 2.40037 14.0003C2.29524 14.0003 2.19114 13.9796 2.09402 13.9393C1.9969 13.8991 1.90867 13.8401 1.83437 13.7657C1.54537 13.4767 1.50137 12.9937 1.83437 12.6337C2.13037 12.3347 2.42737 12.0367 2.72637 11.7407L1.61637 6.15869C1.51637 5.65869 1.91537 5.18169 2.41337 5.18169H4.80837C4.80837 3.40269 6.10537 1.99969 7.97537 1.99969ZM13.7834 5.20669C13.985 5.26059 14.159 5.38851 14.2706 5.56495C14.3821 5.74138 14.4231 5.95339 14.3854 6.15869L13.1384 12.5487C13.0986 12.7315 12.998 12.8953 12.8531 13.0136C12.7081 13.1318 12.5274 13.1974 12.3404 13.1997H5.78937L13.7834 5.20669ZM8.00037 3.59969C7.00237 3.59969 6.40437 4.27669 6.40437 5.20369H9.26437L9.57237 4.89669C9.45037 4.12969 8.86237 3.59969 8.00037 3.59969Z" fill="#1A1C1F"/>
</g>
<defs>
<clipPath id="clip0_2202_1485">
<rect width="16" height="16" fill="white"/>
</clipPath>
</defs>
</svg>

<svg xmlns="http://www.w3.org/2000/svg" width="16" height="16" fill="none"><g clip-path="url(#a)"><path fill="#1A1C1F" fill-rule="evenodd" d="M7.975 2c1.302 0 2.333.65 2.852 1.642l1.007-1.008a.8.8 0 1 1 1.132 1.132q-4.999 5.002-10 10a.8.8 0 0 1-1.132 0c-.289-.29-.333-.772 0-1.132q.444-.45.892-.893l-1.11-5.582c-.1-.5.3-.977.797-.977h2.395C4.808 3.402 6.105 2 7.975 2m5.808 3.207a.83.83 0 0 1 .602.952l-1.247 6.39a.83.83 0 0 1-.798.65H5.79zM8 3.6c-.998 0-1.596.677-1.596 1.604h2.86l.308-.307C9.45 4.13 8.862 3.6 8 3.6" clip-rule="evenodd"/></g><defs><clipPath id="a"><path fill="#fff" d="M0 0h16v16H0z"/></clipPath></defs></svg>
